mantener/images/testimonial-bg.svg

<?xml version="1.0" encoding="UTF-8"?>
<svg width="1440px" height="481px" viewBox="0 0 1440 481" version="1.1" xmlns="http://www.w3.org/2000/svg" xmlns:xlink="http://www.w3.org/1999/xlink">
    <!-- Generator: Sketch 53 (72520) - https://sketchapp.com -->
    <title>1</title>
    <desc>Created with Sketch.</desc>
    <defs>
        <linearGradient x1="100%" y1="50%" x2="0%" y2="50%" id="linearGradient-1">
            <stop stop-color="#A25CFF" offset="0%"></stop>
            <stop stop-color="#A70FF6" offset="100%"></stop>
        </linearGradient>
    </defs>
    <g id="Marshmello_landing-page" stroke="none" stroke-width="1" fill="none" fill-rule="evenodd">
        <g id="Marshmello_landngpage-Copy" transform="translate(0.000000, -2629.000000)">
            <g id="1" transform="translate(0.000000, 2629.000000)">
                <rect id="Rectangle" fill="url(#linearGradient-1)" x="1" y="0" width="1439" height="480"></rect>
                <path d="M1334,100 L1440,100 L1440,318 L1334,318 C1331.23858,318 1329,315.761424 1329,313 L1329,105 C1329,102.238576 1331.23858,100 1334,100 Z" id="Rectangle" fill="#FFFFFF" opacity="0.11156064"></path>
                <g id="Group-4" transform="translate(618.000000, 293.000000)" fill="#FFFFFF" opacity="0.11156064">
                    <path d="M53,0 L211,-8.8817842e-16 C213.761424,-1.61112656e-14 216,2.23857625 216,5 L216,187 L48,187 L48,5 C48,2.23857625 50.2385763,-3.80913106e-16 53,-8.8817842e-16 Z" id="Rectangle-Copy-8"></path>
                    <path d="M5,26 L163,26 C165.761424,26 168,28.2385763 168,31 L168,188 L0,188 L8.8817842e-16,31 C5.50001544e-16,28.2385763 2.23857625,26 5,26 Z" id="Rectangle-Copy-9"></path>
                </g>
                <path d="M1286,126 L1439,126 L1439,344 L1286,344 C1283.23858,344 1281,341.761424 1281,339 L1281,131 C1281,128.238576 1283.23858,126 1286,126 Z" id="Rectangle-Copy-7" fill="#FFFFFF" opacity="0.11156064"></path>
                <path d="M1,50 L109,50 C111.761424,50 114,52.2385763 114,55 L114,263 C114,265.761424 111.761424,268 109,268 L1,268 L1,50 Z" id="Rectangle-Copy-10" fill="#FFFFFF" opacity="0.11156064"></path>
                <path d="M5.89750471e-13,76 L61,76 C63.7614237,76 66,78.2385763 66,81 L66,289 C66,291.761424 63.7614237,294 61,294 L5.89750471e-13,294 L5.89750471e-13,76 Z" id="Rectangle-Copy-11" fill="#FFFFFF" opacity="0.11156064"></path>
            </g>
        </g>
    </g>
</svg>

<?xml version="1.0" encoding="utf-8"?>
<!-- Generator: Adobe Illustrator 26.0.0, SVG Export Plug-In . SVG Version: 6.00 Build 0)  -->
<svg version="1.1" id="Capa_1" xmlns="http://www.w3.org/2000/svg" xmlns:xlink="http://www.w3.org/1999/xlink" x="0px" y="0px"
	 viewBox="0 0 1440 481" style="enable-background:new 0 0 1440 481;" xml:space="preserve">
<style type="text/css">
	.st0{fill-rule:evenodd;clip-rule:evenodd;fill:#C9B7D9;}
	.st1{opacity:0.1116;fill-rule:evenodd;clip-rule:evenodd;fill:#FFFFFF;enable-background:new    ;}
	.st2{opacity:0.1116;}
	.st3{fill-rule:evenodd;clip-rule:evenodd;fill:#FFFFFF;}
</style>
<rect id="Rectangle" x="1" class="st0" width="1439" height="480"/>
<path id="Rectangle_00000158712384179619635290000004752271007136007060_" class="st1" d="M1334,100h106v218h-106c-2.8,0-5-2.2-5-5
	V105C1329,102.2,1331.2,100,1334,100z"/>
<g id="Group-4" transform="translate(618.000000, 293.000000)" class="st2">
	<path id="Rectangle-Copy-8" class="st3" d="M53,0h158c2.8,0,5,2.2,5,5v182H48V5C48,2.2,50.2,0,53,0z"/>
	<path id="Rectangle-Copy-9" class="st3" d="M5,26h158c2.8,0,5,2.2,5,5v157H0V31C0,28.2,2.2,26,5,26z"/>
</g>
<path id="Rectangle-Copy-7" class="st1" d="M1286,126h153v218h-153c-2.8,0-5-2.2-5-5V131C1281,128.2,1283.2,126,1286,126z"/>
<path id="Rectangle-Copy-10" class="st1" d="M1,50h108c2.8,0,5,2.2,5,5v208c0,2.8-2.2,5-5,5H1V50z"/>
<path id="Rectangle-Copy-11" class="st1" d="M0,76h61c2.8,0,5,2.2,5,5v208c0,2.8-2.2,5-5,5H0V76z"/>
</svg>
